flaticon/gastronomy/pickles.svg

<svg xmlns="http://www.w3.org/2000/svg" width="32" height="32" viewBox="0 0 24 24">
    <path d="M 19.421875 3.960938 C 18.859375 3.703125 18.609375 3.5625 18.542969 3.289062 C 18.554688 3.285156 18.5625 3.28125 18.574219 3.277344 C 18.597656 3.265625 18.617188 3.257812 18.636719 3.246094 C 18.683594 3.222656 18.730469 3.199219 18.773438 3.171875 C 18.796875 3.160156 18.816406 3.144531 18.835938 3.132812 C 18.882812 3.097656 18.925781 3.0625 18.964844 3.023438 C 18.980469 3.011719 18.992188 3.003906 19.003906 2.988281 C 19.054688 2.9375 19.101562 2.882812 19.144531 2.820312 C 19.15625 2.804688 19.164062 2.789062 19.171875 2.773438 C 19.203125 2.726562 19.230469 2.679688 19.253906 2.625 C 19.261719 2.605469 19.273438 2.582031 19.28125 2.558594 C 19.300781 2.507812 19.316406 2.457031 19.328125 2.40625 C 19.335938 2.382812 19.339844 2.359375 19.34375 2.335938 C 19.359375 2.261719 19.367188 2.183594 19.367188 2.105469 L 19.367188 1.261719 C 19.367188 0.566406 18.800781 0 18.105469 0 L 5.472656 0 C 4.777344 0 4.210938 0.566406 4.210938 1.261719 L 4.210938 2.105469 C 4.210938 2.191406 4.21875 2.273438 4.234375 2.355469 C 4.242188 2.386719 4.253906 2.414062 4.261719 2.441406 C 4.277344 2.492188 4.289062 2.542969 4.308594 2.589844 C 4.320312 2.625 4.339844 2.652344 4.359375 2.683594 C 4.378906 2.722656 4.398438 2.765625 4.421875 2.804688 C 4.445312 2.835938 4.46875 2.863281 4.492188 2.890625 C 4.519531 2.925781 4.542969 2.960938 4.574219 2.988281 C 4.601562 3.015625 4.632812 3.039062 4.660156 3.0625 C 4.691406 3.089844 4.722656 3.121094 4.757812 3.144531 C 4.789062 3.164062 4.824219 3.183594 4.855469 3.199219 C 4.894531 3.222656 4.929688 3.246094 4.96875 3.261719 C 5.003906 3.277344 5.042969 3.285156 5.078125 3.300781 C 5.121094 3.3125 5.160156 3.328125 5.203125 3.335938 C 5.242188 3.347656 5.28125 3.347656 5.320312 3.351562 C 5.359375 3.359375 5.394531 3.367188 5.429688 3.367188 C 5.339844 3.59375 5.082031 3.730469 4.578125 3.960938 C 3.710938 4.359375 2.527344 4.90625 2.527344 6.914062 L 2.527344 20.050781 C 2.527344 22.226562 4.300781 24 6.476562 24 L 17.523438 24 C 19.699219 24 21.472656 22.226562 21.472656 20.050781 L 21.472656 6.914062 C 21.472656 4.90625 20.289062 4.359375 19.421875 3.960938 Z M 5.050781 1.261719 C 5.050781 1.03125 5.242188 0.84375 5.472656 0.84375 L 18.105469 0.84375 C 18.335938 0.84375 18.527344 1.03125 18.527344 1.261719 L 18.527344 2.105469 C 18.527344 2.335938 18.335938 2.527344 18.105469 2.527344 L 5.472656 2.527344 C 5.242188 2.527344 5.050781 2.335938 5.050781 2.105469 Z M 20.632812 20.050781 C 20.632812 21.761719 19.238281 23.15625 17.523438 23.15625 L 6.476562 23.15625 C 4.761719 23.15625 3.367188 21.761719 3.367188 20.050781 L 3.367188 6.914062 C 3.367188 5.445312 4.128906 5.097656 4.929688 4.726562 C 5.519531 4.457031 6.175781 4.144531 6.292969 3.367188 L 17.707031 3.367188 C 17.824219 4.144531 18.480469 4.457031 19.070312 4.726562 C 19.871094 5.097656 20.632812 5.445312 20.632812 6.914062 Z M 6.019531 0.964844 L 6.613281 1.5625 L 5.769531 2.402344 L 5.175781 1.808594 Z M 7.703125 0.964844 L 8.296875 1.5625 L 7.457031 2.402344 L 6.859375 1.808594 Z M 9.386719 0.964844 L 9.980469 1.5625 L 9.140625 2.402344 L 8.542969 1.808594 Z M 11.070312 0.964844 L 11.667969 1.5625 L 10.824219 2.402344 L 10.230469 1.808594 Z M 12.753906 0.964844 L 13.351562 1.5625 L 12.507812 2.402344 L 11.914062 1.808594 Z M 14.4375 0.964844 L 15.035156 1.5625 L 14.191406 2.402344 L 13.597656 1.808594 Z M 16.125 0.964844 L 16.71875 1.5625 L 15.875 2.402344 L 15.28125 1.808594 Z M 17.808594 0.964844 L 18.402344 1.5625 L 17.558594 2.402344 L 16.964844 1.808594 Z M 20.210938 9.050781 C 20.210938 6.382812 18.699219 4.210938 16.84375 4.210938 C 15.964844 4.210938 15.167969 4.699219 14.566406 5.492188 C 14.246094 4.738281 13.5 4.210938 12.632812 4.210938 C 11.472656 4.210938 10.527344 5.15625 10.527344 6.316406 C 10.527344 6.476562 10.546875 6.632812 10.582031 6.785156 C 10.429688 6.753906 10.269531 6.738281 10.105469 6.738281 C 9.457031 6.738281 8.867188 6.984375 8.421875 7.386719 L 8.421875 7.15625 C 8.421875 5.996094 7.476562 5.050781 6.316406 5.050781 C 5.15625 5.050781 4.210938 5.996094 4.210938 7.15625 L 4.210938 10.105469 C 4.210938 10.910156 4.671875 11.601562 5.335938 11.957031 C 4.375 12.515625 3.789062 13.265625 3.789062 14.105469 C 3.789062 15.148438 4.691406 16.054688 6.105469 16.628906 C 4.753906 17.078125 3.789062 18.230469 3.789062 19.578125 C 3.789062 21.320312 5.394531 22.738281 7.367188 22.738281 C 8.488281 22.738281 9.484375 22.28125 10.144531 21.570312 C 10.304688 22.234375 10.980469 22.738281 11.789062 22.738281 C 12.71875 22.738281 13.472656 22.074219 13.472656 21.261719 C 13.472656 20.847656 13.273438 20.472656 12.957031 20.203125 C 13.136719 20.195312 13.3125 20.171875 13.480469 20.125 C 13.480469 20.15625 13.472656 20.183594 13.472656 20.210938 C 13.472656 21.371094 14.417969 22.316406 15.578125 22.316406 L 17.683594 22.316406 C 18.84375 22.316406 19.789062 21.371094 19.789062 20.210938 C 19.789062 19.496094 19.429688 18.867188 18.886719 18.488281 C 19.683594 17.992188 20.210938 17.144531 20.210938 16.179688 C 20.210938 14.933594 19.328125 13.878906 18.117188 13.53125 C 19.34375 12.808594 20.210938 11.074219 20.210938 9.050781 Z M 14.207031 12.0625 C 13.566406 11.652344 12.734375 11.339844 11.78125 11.148438 C 12.300781 10.6875 12.632812 10.011719 12.632812 9.261719 C 12.632812 8.960938 12.574219 8.671875 12.476562 8.40625 C 12.53125 8.410156 12.578125 8.421875 12.632812 8.421875 C 12.953125 8.421875 13.253906 8.34375 13.527344 8.214844 C 13.496094 8.484375 13.472656 8.765625 13.472656 9.050781 C 13.472656 10.191406 13.75 11.234375 14.207031 12.0625 Z M 14.335938 16.5 C 14.230469 16.417969 14.113281 16.34375 13.988281 16.277344 C 14.105469 16.210938 14.21875 16.144531 14.320312 16.074219 C 14.320312 16.109375 14.316406 16.144531 14.316406 16.179688 C 14.316406 16.289062 14.324219 16.394531 14.335938 16.5 Z M 15.5625 13.925781 C 15.546875 13.769531 15.515625 13.613281 15.460938 13.464844 C 15.613281 13.566406 15.773438 13.648438 15.9375 13.710938 C 15.808594 13.773438 15.683594 13.84375 15.5625 13.925781 Z M 12.632812 5.050781 C 13.328125 5.050781 13.894531 5.621094 13.894531 6.316406 C 13.894531 7.011719 13.328125 7.578125 12.632812 7.578125 C 11.933594 7.578125 11.367188 7.011719 11.367188 6.316406 C 11.367188 5.621094 11.933594 5.050781 12.632812 5.050781 Z M 10.105469 7.578125 C 11.035156 7.578125 11.789062 8.335938 11.789062 9.261719 C 11.789062 10.191406 11.035156 10.949219 10.105469 10.949219 C 9.175781 10.949219 8.421875 10.191406 8.421875 9.261719 C 8.421875 8.335938 9.175781 7.578125 10.105469 7.578125 Z M 5.050781 7.15625 C 5.050781 6.460938 5.621094 5.894531 6.316406 5.894531 C 7.011719 5.894531 7.578125 6.460938 7.578125 7.15625 L 7.578125 10.105469 C 7.578125 10.800781 7.011719 11.367188 6.316406 11.367188 C 5.621094 11.367188 5.050781 10.800781 5.050781 10.105469 Z M 4.632812 14.105469 C 4.632812 12.988281 6.660156 11.789062 9.683594 11.789062 C 12.707031 11.789062 14.738281 12.988281 14.738281 14.105469 C 14.738281 14.832031 13.875 15.589844 12.445312 16.03125 C 12.261719 16.0625 12.085938 16.109375 11.917969 16.175781 C 11.261719 16.328125 10.511719 16.421875 9.683594 16.421875 C 6.660156 16.421875 4.632812 15.222656 4.632812 14.105469 Z M 9.789062 17.261719 C 10.117188 17.257812 10.4375 17.238281 10.75 17.210938 C 10.609375 17.480469 10.527344 17.78125 10.527344 18.097656 C 10.335938 17.78125 10.085938 17.5 9.789062 17.261719 Z M 7.367188 21.894531 C 5.859375 21.894531 4.632812 20.855469 4.632812 19.578125 C 4.632812 18.300781 5.859375 17.261719 7.367188 17.261719 C 8.878906 17.261719 10.105469 18.300781 10.105469 19.578125 C 10.105469 20.855469 8.878906 21.894531 7.367188 21.894531 Z M 10.929688 19.292969 C 11.085938 19.496094 11.277344 19.671875 11.496094 19.816406 C 11.285156 19.847656 11.085938 19.917969 10.910156 20.011719 C 10.933594 19.871094 10.949219 19.726562 10.949219 19.578125 C 10.949219 19.480469 10.941406 19.386719 10.929688 19.292969 Z M 11.789062 21.894531 C 11.332031 21.894531 10.949219 21.605469 10.949219 21.261719 C 10.949219 20.921875 11.332031 20.632812 11.789062 20.632812 C 12.246094 20.632812 12.632812 20.921875 12.632812 21.261719 C 12.632812 21.605469 12.246094 21.894531 11.789062 21.894531 Z M 12.84375 19.367188 C 12.03125 19.367188 11.367188 18.800781 11.367188 18.105469 C 11.367188 17.597656 11.722656 17.160156 12.226562 16.960938 C 12.351562 16.929688 12.472656 16.898438 12.589844 16.863281 C 12.671875 16.851562 12.753906 16.84375 12.84375 16.84375 C 13.65625 16.84375 14.316406 17.410156 14.316406 18.105469 C 14.316406 18.308594 14.253906 18.5 14.152344 18.671875 C 14.035156 18.78125 13.925781 18.898438 13.835938 19.03125 C 13.574219 19.238281 13.226562 19.367188 12.84375 19.367188 Z M 17.683594 18.949219 C 18.378906 18.949219 18.949219 19.515625 18.949219 20.210938 C 18.949219 20.90625 18.378906 21.472656 17.683594 21.472656 L 15.578125 21.472656 C 14.882812 21.472656 14.316406 20.90625 14.316406 20.210938 C 14.316406 19.980469 14.382812 19.769531 14.488281 19.582031 C 14.609375 19.472656 14.710938 19.351562 14.800781 19.222656 C 15.015625 19.054688 15.285156 18.949219 15.578125 18.949219 Z M 19.367188 16.179688 C 19.367188 17.242188 18.425781 18.105469 17.261719 18.105469 C 16.101562 18.105469 15.15625 17.242188 15.15625 16.179688 C 15.15625 15.121094 16.101562 14.257812 17.261719 14.257812 C 18.425781 14.257812 19.367188 15.121094 19.367188 16.179688 Z M 16.84375 13.050781 C 15.472656 13.050781 14.316406 11.21875 14.316406 9.050781 C 14.316406 6.882812 15.472656 5.050781 16.84375 5.050781 C 18.210938 5.050781 19.367188 6.882812 19.367188 9.050781 C 19.367188 11.21875 18.210938 13.050781 16.84375 13.050781 Z M 16.84375 13.050781"/>
</svg>

<svg xmlns="http://www.w3.org/2000/svg" width="32" height="32" viewBox="0 0 24 24">
    <path d="M19.422 3.96c-.563-.257-.813-.397-.879-.67l.031-.013.063-.03c.047-.024.093-.048.136-.075.024-.012.043-.027.063-.04.047-.034.09-.07.129-.109a1.186 1.186 0 0 0 .18-.203c.011-.015.02-.03.027-.047a.905.905 0 0 0 .082-.148c.008-.02.02-.043.027-.066.02-.051.035-.102.047-.153.008-.023.012-.047.016-.07.015-.074.023-.152.023-.23v-.844C19.367.566 18.801 0 18.105 0H5.473C4.777 0 4.21.566 4.21 1.262v.843c0 .086.008.168.023.25.008.032.02.06.028.086.015.051.027.102.047.149.011.035.03.062.05.094.02.039.04.082.063.12.023.032.047.06.07.087.028.035.051.07.082.097.028.028.059.051.086.075.031.027.063.058.098.082.031.02.066.039.097.054.04.024.075.047.114.063.035.015.074.023.11.039.042.011.081.027.124.035.04.012.078.012.117.016.04.007.075.015.11.015-.09.227-.348.363-.852.594-.867.398-2.05.945-2.05 2.953v13.137A3.956 3.956 0 0 0 6.476 24h11.046a3.956 3.956 0 0 0 3.95-3.95V6.915c0-2.008-1.184-2.555-2.051-2.953zM5.05 1.263c0-.23.191-.418.422-.418h12.632c.23 0 .422.187.422.418v.843c0 .23-.191.422-.422.422H5.473a.425.425 0 0 1-.422-.422zM20.633 20.05a3.112 3.112 0 0 1-3.11 3.105H6.477a3.112 3.112 0 0 1-3.11-3.105V6.914c0-1.469.762-1.816 1.563-2.187.59-.27 1.246-.582 1.363-1.36h11.414c.117.778.773 1.09 1.363 1.36.801.37 1.563.718 1.563 2.187zM6.02.965l.593.598-.843.84-.594-.594zm1.683 0l.594.598-.84.84-.598-.594zm1.684 0l.593.598-.84.84-.597-.594zm1.683 0l.598.598-.844.84-.594-.594zm1.684 0l.598.598-.844.84-.594-.594zm1.684 0l.597.598-.844.84-.593-.594zm1.687 0l.594.598-.844.84-.594-.594zm1.684 0l.593.598-.843.84-.594-.594zM20.21 9.05c0-2.668-1.512-4.84-3.367-4.84-.88 0-1.676.488-2.278 1.281a2.102 2.102 0 0 0-1.933-1.281c-1.16 0-2.106.945-2.106 2.105 0 .16.02.317.055.47a2.503 2.503 0 0 0-2.16.602v-.232c0-1.16-.945-2.105-2.106-2.105-1.16 0-2.105.945-2.105 2.105v2.95c0 .804.46 1.496 1.125 1.851-.961.559-1.547 1.309-1.547 2.148 0 1.043.902 1.95 2.316 2.524-1.351.45-2.316 1.601-2.316 2.95 0 1.741 1.606 3.16 3.578 3.16 1.121 0 2.117-.458 2.778-1.169.16.664.835 1.168 1.644 1.168.93 0 1.684-.664 1.684-1.476 0-.414-.2-.79-.516-1.059a2.32 2.32 0 0 0 .523-.078c0 .031-.007.059-.007.086 0 1.16.945 2.105 2.105 2.105h2.106c1.16 0 2.105-.945 2.105-2.105 0-.715-.36-1.344-.902-1.723.797-.496 1.324-1.343 1.324-2.308 0-1.246-.883-2.301-2.094-2.649 1.227-.722 2.094-2.457 2.094-4.48zm-6.004 3.011c-.64-.41-1.473-.722-2.426-.914.52-.46.852-1.136.852-1.886 0-.301-.059-.59-.156-.856.054.004.101.016.156.016.32 0 .62-.078.894-.207-.03.27-.054.55-.054.836 0 1.14.277 2.183.734 3.011zm.129 4.438a2.402 2.402 0 0 0-.348-.223c.117-.066.23-.132.332-.203 0 .035-.004.07-.004.106 0 .11.008.215.02.32zm1.226-2.574a1.872 1.872 0 0 0-.101-.461 2.4 2.4 0 0 0 .476.246 2.993 2.993 0 0 0-.374.215zm-2.93-8.875a1.264 1.264 0 1 1-1.266 1.266c.001-.696.568-1.266 1.267-1.266zm-2.527 2.527a1.686 1.686 0 0 1 0 3.371 1.686 1.686 0 0 1 0-3.371zm-5.054-.422a1.264 1.264 0 0 1 2.527 0v2.95a1.264 1.264 0 0 1-2.527 0zm-.418 6.95c0-1.118 2.027-2.317 5.05-2.317 3.024 0 5.055 1.2 5.055 2.316 0 .727-.863 1.485-2.293 1.926-.183.032-.36.078-.527.145a9.9 9.9 0 0 1-2.234.246c-3.024 0-5.051-1.2-5.051-2.317zm5.156 3.156c.328-.004.649-.024.961-.051-.14.27-.223.57-.223.887a3.195 3.195 0 0 0-.738-.836zm-2.422 4.633c-1.508 0-2.734-1.04-2.734-2.317 0-1.277 1.226-2.316 2.734-2.316 1.512 0 2.738 1.039 2.738 2.316s-1.226 2.317-2.738 2.317zm3.563-2.602c.156.203.347.379.566.523-.21.032-.41.102-.586.196a2.28 2.28 0 0 0 .02-.719zm.86 2.602c-.458 0-.84-.29-.84-.633 0-.34.382-.63.84-.63.456 0 .843.29.843.63 0 .343-.387.633-.844.633zm1.054-2.528c-.813 0-1.477-.566-1.477-1.262 0-.507.356-.945.86-1.144.125-.031.246-.063.363-.098.082-.011.164-.02.254-.02.812 0 1.472.567 1.472 1.262 0 .204-.062.395-.164.567-.117.11-.226.226-.316.36a1.6 1.6 0 0 1-.992.335zm4.84-.418c.695 0 1.265.567 1.265 1.262 0 .695-.57 1.262-1.265 1.262h-2.106a1.264 1.264 0 0 1-1.262-1.262c0-.23.067-.441.172-.629.121-.11.223-.23.313-.36.215-.167.484-.273.777-.273zm1.683-2.77c0 1.063-.941 1.926-2.105 1.926-1.16 0-2.106-.863-2.106-1.925 0-1.059.946-1.922 2.106-1.922 1.164 0 2.105.863 2.105 1.922zm-2.523-3.128c-1.371 0-2.528-1.832-2.528-4s1.157-4 2.528-4c1.367 0 2.523 1.832 2.523 4s-1.156 4-2.523 4zm0 0"/>
</svg>
